flaticon/gastronomy/shrimp.svg

<svg xmlns="http://www.w3.org/2000/svg" width="32" height="32" viewBox="0 0 24 24">
    <path d="M 10.804688 2.6875 C 10.835938 2.195312 10.472656 1.769531 9.996094 1.734375 C 9.765625 1.714844 9.550781 1.796875 9.375 1.945312 C 9.195312 2.105469 9.085938 2.332031 9.070312 2.574219 C 9.039062 3.066406 9.402344 3.496094 9.878906 3.527344 C 9.898438 3.53125 9.917969 3.53125 9.9375 3.53125 C 10.144531 3.53125 10.34375 3.457031 10.5 3.316406 C 10.679688 3.160156 10.792969 2.929688 10.804688 2.6875 Z M 9.90625 2.644531 L 9.929688 2.636719 L 10.355469 2.660156 Z M 9.90625 2.644531"/>
    <path d="M 23.527344 12.238281 L 22.082031 9.398438 L 22.679688 9.003906 L 22.761719 8.933594 C 23.125 8.546875 23.300781 8.011719 23.246094 7.476562 C 23.195312 6.964844 22.933594 6.503906 22.53125 6.214844 L 19.945312 4.15625 C 19.960938 4.085938 19.972656 4.03125 19.980469 3.996094 C 20.171875 3.453125 20.125 2.859375 19.851562 2.355469 C 19.589844 1.875 19.140625 1.535156 18.625 1.425781 L 13.5625 0.628906 C 13.367188 0.585938 13.164062 0.582031 12.960938 0.613281 C 12.953125 0.605469 12.945312 0.597656 12.9375 0.59375 C 11.382812 -0.496094 8.835938 0.242188 8.726562 0.277344 L 3.082031 3 C 1.933594 2.425781 1.195312 1.566406 1.25 0.671875 C 1.261719 0.425781 1.074219 0.210938 0.828125 0.195312 C 0.589844 0.191406 0.367188 0.371094 0.351562 0.617188 C 0.285156 1.742188 0.980469 2.785156 2.144531 3.519531 C 2.03125 3.644531 1.953125 3.804688 1.9375 3.984375 C 1.914062 4.265625 2.035156 4.53125 2.261719 4.695312 C 3.46875 5.554688 6.527344 7.472656 9.734375 7.472656 C 9.902344 7.472656 10.070312 7.46875 10.238281 7.457031 C 10.339844 7.453125 10.433594 7.4375 10.53125 7.429688 L 10.566406 7.464844 C 10.601562 7.503906 10.636719 7.539062 10.671875 7.574219 L 12.15625 9.386719 C 11.867188 9.59375 11.511719 9.714844 11.128906 9.714844 C 10.878906 9.714844 10.679688 9.917969 10.679688 10.164062 C 10.679688 10.414062 10.878906 10.613281 11.128906 10.613281 C 11.785156 10.613281 12.386719 10.378906 12.855469 9.984375 C 13.246094 10.214844 13.691406 10.339844 14.140625 10.339844 C 14.175781 10.339844 14.214844 10.335938 14.253906 10.332031 C 13.769531 11.046875 12.949219 11.511719 12.027344 11.511719 C 11.777344 11.511719 11.578125 11.714844 11.578125 11.960938 C 11.578125 12.210938 11.777344 12.410156 12.027344 12.410156 C 13.292969 12.410156 14.40625 11.75 15.046875 10.757812 L 15.304688 11.59375 L 15.332031 11.667969 C 15.417969 11.832031 15.527344 11.96875 15.652344 12.089844 L 15.472656 12.839844 L 15.460938 12.917969 C 15.433594 13.429688 15.644531 13.917969 16.027344 14.222656 C 16.140625 14.316406 16.265625 14.382812 16.394531 14.433594 L 16.089844 14.789062 L 16.042969 14.851562 C 15.8125 15.238281 15.777344 15.710938 15.949219 16.113281 C 15.957031 16.128906 15.96875 16.144531 15.976562 16.160156 C 15.195312 16.382812 14.410156 16.535156 13.84375 16.570312 C 13.242188 16.601562 12.699219 17.03125 12.527344 17.613281 C 12.394531 18.058594 12.527344 18.492188 12.875 18.746094 C 13.261719 19.03125 13.894531 18.976562 14.898438 18.855469 C 15.273438 18.8125 15.660156 18.761719 15.878906 18.78125 C 15.945312 18.785156 15.992188 18.804688 16.007812 18.832031 C 16.023438 18.859375 16.023438 18.925781 15.972656 19.015625 C 15.90625 19.140625 15.816406 19.296875 15.710938 19.472656 C 15.078125 20.542969 14.121094 22.15625 14.460938 23.292969 C 14.582031 23.699219 14.933594 23.96875 15.382812 23.996094 C 15.410156 24 15.441406 24 15.46875 24 C 16.039062 24 16.585938 23.644531 16.828125 23.105469 C 17.296875 22.058594 18.640625 20.46875 20.0625 18.789062 L 20.355469 18.441406 C 20.390625 18.402344 20.480469 18.304688 20.601562 18.175781 C 20.703125 18.066406 20.824219 17.9375 20.949219 17.800781 C 20.949219 17.800781 20.953125 17.800781 20.953125 17.800781 C 21.234375 17.800781 21.515625 17.710938 21.753906 17.542969 C 22.097656 17.296875 22.3125 16.917969 22.351562 16.503906 L 22.355469 16.472656 L 22.273438 14.457031 L 22.363281 14.457031 L 22.480469 14.4375 C 22.914062 14.316406 23.28125 14.003906 23.484375 13.582031 C 23.691406 13.15625 23.707031 12.667969 23.527344 12.238281 Z M 21.980469 6.925781 L 22 6.9375 C 22.199219 7.078125 22.328125 7.308594 22.351562 7.566406 C 22.378906 7.832031 22.300781 8.089844 22.136719 8.285156 L 17.476562 11.355469 L 17.390625 11.421875 C 17.332031 11.488281 17.261719 11.539062 17.191406 11.578125 C 17.171875 11.589844 17.15625 11.597656 17.140625 11.605469 C 17.070312 11.640625 17 11.664062 16.925781 11.675781 C 16.921875 11.675781 16.914062 11.679688 16.910156 11.679688 C 16.828125 11.691406 16.746094 11.683594 16.664062 11.667969 C 16.652344 11.664062 16.644531 11.664062 16.636719 11.660156 C 16.554688 11.640625 16.476562 11.609375 16.402344 11.558594 L 16.375 11.542969 C 16.285156 11.476562 16.207031 11.390625 16.148438 11.289062 L 15.730469 9.921875 C 15.785156 9.898438 15.832031 9.871094 15.882812 9.847656 C 18.105469 8.777344 19.199219 6.480469 19.671875 5.089844 Z M 2.9375 4.070312 L 3.078125 4 C 3.824219 4.308594 4.679688 4.515625 5.605469 4.582031 C 5.617188 4.582031 5.628906 4.582031 5.636719 4.582031 C 5.871094 4.582031 6.070312 4.402344 6.085938 4.164062 C 6.101562 3.917969 5.917969 3.703125 5.667969 3.683594 C 5.167969 3.648438 4.6875 3.5625 4.238281 3.441406 L 9.015625 1.128906 C 9.664062 0.941406 11.441406 0.640625 12.421875 1.328125 C 12.5 1.382812 12.5625 1.453125 12.628906 1.519531 C 12.679688 1.566406 12.726562 1.617188 12.769531 1.671875 C 12.808594 1.726562 12.847656 1.785156 12.882812 1.847656 C 12.914062 1.898438 12.949219 1.953125 12.972656 2.011719 C 13.011719 2.089844 13.035156 2.179688 13.0625 2.269531 C 13.078125 2.320312 13.097656 2.367188 13.109375 2.421875 C 13.144531 2.574219 13.167969 2.730469 13.175781 2.90625 L 13.183594 2.957031 C 13.183594 2.957031 13.183594 2.964844 13.1875 2.976562 C 13.1875 2.980469 13.1875 2.988281 13.1875 2.996094 C 13.1875 3.003906 13.191406 3.011719 13.191406 3.023438 C 13.199219 3.082031 13.207031 3.183594 13.214844 3.3125 C 13.214844 3.355469 13.214844 3.398438 13.214844 3.449219 C 13.214844 3.496094 13.214844 3.546875 13.214844 3.597656 C 13.214844 3.601562 13.214844 3.605469 13.214844 3.609375 C 13.210938 3.660156 13.210938 3.710938 13.207031 3.765625 C 13.207031 3.769531 13.207031 3.777344 13.207031 3.78125 C 13.199219 3.832031 13.195312 3.886719 13.191406 3.945312 C 13.1875 3.949219 13.1875 3.957031 13.1875 3.964844 C 13.179688 4.019531 13.171875 4.074219 13.164062 4.132812 C 13.164062 4.140625 13.160156 4.148438 13.160156 4.160156 C 13.148438 4.214844 13.140625 4.273438 13.125 4.328125 C 13.125 4.339844 13.121094 4.351562 13.117188 4.363281 C 13.105469 4.417969 13.089844 4.472656 13.074219 4.53125 C 13.070312 4.542969 13.066406 4.554688 13.0625 4.570312 C 13.046875 4.625 13.027344 4.679688 13.007812 4.734375 C 13.003906 4.75 13 4.765625 12.992188 4.777344 C 12.972656 4.832031 12.949219 4.886719 12.925781 4.9375 C 12.917969 4.957031 12.910156 4.972656 12.902344 4.988281 C 12.878906 5.039062 12.855469 5.089844 12.824219 5.140625 C 12.816406 5.160156 12.804688 5.179688 12.792969 5.199219 C 12.765625 5.246094 12.734375 5.292969 12.707031 5.339844 C 12.671875 5.390625 12.636719 5.441406 12.597656 5.492188 C 12.09375 6.128906 11.28125 6.492188 10.179688 6.5625 C 7.214844 6.765625 4.226562 4.964844 2.9375 4.070312 Z M 13.449219 9.285156 C 13.683594 8.882812 13.824219 8.417969 13.824219 7.921875 C 13.824219 7.671875 13.621094 7.472656 13.375 7.472656 C 13.125 7.472656 12.925781 7.671875 12.925781 7.921875 C 12.925781 8.195312 12.855469 8.453125 12.746094 8.6875 L 11.683594 7.386719 C 12.480469 7.089844 13.070312 6.574219 13.449219 5.847656 C 13.449219 5.847656 13.449219 5.84375 13.453125 5.839844 C 13.496094 5.777344 13.535156 5.710938 13.574219 5.644531 C 13.582031 5.628906 13.589844 5.613281 13.601562 5.597656 C 13.636719 5.53125 13.671875 5.464844 13.703125 5.398438 C 13.710938 5.382812 13.71875 5.371094 13.722656 5.355469 C 13.757812 5.285156 13.785156 5.21875 13.8125 5.152344 C 13.816406 5.136719 13.824219 5.121094 13.828125 5.109375 C 13.855469 5.039062 13.878906 4.972656 13.898438 4.90625 C 13.902344 4.890625 13.90625 4.875 13.914062 4.863281 C 13.933594 4.792969 13.953125 4.726562 13.96875 4.660156 C 13.972656 4.648438 13.976562 4.632812 13.980469 4.621094 C 13.996094 4.554688 14.011719 4.484375 14.023438 4.417969 C 14.027344 4.410156 14.027344 4.398438 14.03125 4.386719 C 14.042969 4.320312 14.054688 4.253906 14.0625 4.1875 C 14.066406 4.175781 14.066406 4.167969 14.066406 4.160156 C 14.078125 4.09375 14.085938 4.027344 14.089844 3.964844 C 14.09375 3.957031 14.09375 3.949219 14.09375 3.941406 C 14.097656 3.878906 14.105469 3.816406 14.105469 3.753906 C 14.109375 3.75 14.109375 3.742188 14.109375 3.738281 C 14.109375 3.675781 14.113281 3.617188 14.113281 3.5625 C 14.113281 3.554688 14.113281 3.550781 14.113281 3.546875 C 14.113281 3.488281 14.113281 3.433594 14.113281 3.382812 L 14.113281 3.375 C 14.113281 3.324219 14.113281 3.273438 14.109375 3.226562 L 14.109375 3.21875 C 14.101562 3.027344 14.082031 2.890625 14.074219 2.832031 C 14.074219 2.820312 14.070312 2.8125 14.070312 2.800781 C 14.0625 2.691406 14.050781 2.582031 14.035156 2.480469 C 14.027344 2.40625 14.011719 2.339844 13.996094 2.273438 C 13.988281 2.230469 13.980469 2.191406 13.972656 2.152344 C 13.949219 2.0625 13.921875 1.976562 13.894531 1.894531 C 13.890625 1.878906 13.886719 1.863281 13.878906 1.847656 C 13.847656 1.757812 13.808594 1.667969 13.769531 1.582031 C 13.765625 1.578125 13.765625 1.570312 13.761719 1.566406 L 18.449219 2.304688 C 18.707031 2.363281 18.925781 2.535156 19.0625 2.785156 C 19.21875 3.070312 19.242188 3.410156 19.125 3.714844 L 19.105469 3.789062 C 19.101562 3.804688 18.996094 4.332031 18.722656 5.0625 C 18.707031 5.101562 18.691406 5.140625 18.675781 5.183594 C 18.664062 5.222656 18.648438 5.257812 18.632812 5.296875 C 18.601562 5.375 18.570312 5.453125 18.535156 5.53125 C 18.53125 5.542969 18.523438 5.550781 18.519531 5.5625 C 18.050781 6.640625 17.230469 8.003906 15.902344 8.820312 C 15.898438 8.824219 15.890625 8.824219 15.886719 8.828125 C 15.796875 8.882812 15.703125 8.929688 15.613281 8.980469 C 15.613281 8.925781 15.621094 8.871094 15.621094 8.820312 C 15.621094 8.570312 15.417969 8.371094 15.171875 8.371094 C 14.921875 8.371094 14.722656 8.570312 14.722656 8.820312 C 14.722656 9 14.703125 9.179688 14.667969 9.351562 C 14.605469 9.371094 14.542969 9.390625 14.480469 9.402344 C 14.132812 9.484375 13.769531 9.433594 13.449219 9.285156 Z M 19.671875 17.859375 L 19.378906 18.207031 C 17.910156 19.9375 16.527344 21.574219 16.007812 22.738281 C 15.898438 22.980469 15.636719 23.121094 15.4375 23.101562 C 15.339844 23.09375 15.328125 23.058594 15.320312 23.035156 C 15.09375 22.277344 15.996094 20.75 16.484375 19.929688 C 16.59375 19.742188 16.691406 19.578125 16.761719 19.445312 C 16.957031 19.09375 16.96875 18.710938 16.796875 18.398438 C 16.628906 18.097656 16.320312 17.910156 15.941406 17.882812 C 15.890625 17.878906 15.839844 17.878906 15.785156 17.878906 C 15.503906 17.878906 15.15625 17.921875 14.789062 17.964844 C 14.367188 18.015625 13.578125 18.109375 13.402344 18.019531 C 13.390625 18.011719 13.351562 17.984375 13.386719 17.867188 C 13.441406 17.679688 13.648438 17.476562 13.894531 17.464844 C 14.671875 17.421875 15.769531 17.1875 16.789062 16.851562 C 16.804688 16.855469 16.816406 16.859375 16.832031 16.863281 L 19.917969 17.59375 C 19.796875 17.722656 19.703125 17.820312 19.671875 17.859375 Z M 21.453125 16.445312 C 21.433594 16.589844 21.355469 16.722656 21.230469 16.8125 C 21.167969 16.855469 21.035156 16.929688 20.871094 16.894531 L 20.859375 16.890625 L 17.042969 15.988281 C 17.027344 15.984375 17.015625 15.976562 16.976562 15.960938 L 16.925781 15.9375 C 16.839844 15.886719 16.796875 15.8125 16.773438 15.761719 C 16.71875 15.628906 16.726562 15.476562 16.796875 15.339844 L 17.519531 14.503906 L 21.375 14.464844 Z M 22.675781 13.191406 C 22.59375 13.363281 22.453125 13.496094 22.285156 13.554688 L 22.128906 13.558594 L 19.183594 13.585938 L 17.21875 13.605469 L 17.105469 13.609375 L 17.089844 13.625 C 16.910156 13.671875 16.734375 13.636719 16.589844 13.523438 C 16.441406 13.402344 16.355469 13.214844 16.359375 13.003906 L 16.464844 12.542969 C 16.492188 12.550781 16.515625 12.550781 16.539062 12.554688 C 16.558594 12.558594 16.574219 12.566406 16.59375 12.570312 C 16.617188 12.574219 16.640625 12.574219 16.667969 12.574219 C 16.671875 12.574219 16.675781 12.574219 16.679688 12.574219 C 16.726562 12.578125 16.773438 12.585938 16.816406 12.585938 C 16.835938 12.585938 16.851562 12.582031 16.867188 12.582031 C 16.941406 12.578125 17.015625 12.570312 17.089844 12.558594 C 17.136719 12.550781 17.183594 12.539062 17.234375 12.523438 C 17.277344 12.511719 17.320312 12.5 17.363281 12.484375 C 17.410156 12.464844 17.460938 12.449219 17.507812 12.425781 C 17.578125 12.394531 17.644531 12.359375 17.707031 12.316406 C 17.734375 12.300781 17.761719 12.28125 17.785156 12.261719 C 17.863281 12.207031 17.941406 12.144531 18.011719 12.078125 L 21.328125 9.894531 L 22.707031 12.597656 C 22.78125 12.785156 22.769531 13 22.675781 13.191406 Z M 22.675781 13.191406"/>
</svg>

<svg xmlns="http://www.w3.org/2000/svg" width="32" height="32" viewBox="0 0 24 24">
    <path d="M10.805 2.688a.89.89 0 0 0-.809-.954.845.845 0 0 0-.621.211.922.922 0 0 0-.305.63c-.03.491.332.921.809.952.02.004.039.004.059.004a.836.836 0 0 0 .562-.215.898.898 0 0 0 .305-.628zm-.899-.043l.024-.008.425.023zm0 0"/>
    <path d="M23.527 12.238l-1.445-2.84.598-.394.082-.07c.363-.387.539-.922.484-1.457a1.764 1.764 0 0 0-.715-1.262l-2.586-2.059.035-.16a2.023 2.023 0 0 0-.128-1.64c-.262-.481-.711-.82-1.227-.93L13.562.629a1.636 1.636 0 0 0-.601-.016c-.008-.008-.016-.015-.024-.02-1.554-1.09-4.101-.35-4.21-.316L3.082 3C1.934 2.426 1.195 1.566 1.25.672A.455.455 0 0 0 .828.195a.466.466 0 0 0-.476.422C.285 1.742.98 2.785 2.145 3.52a.789.789 0 0 0 .117 1.176c1.207.859 4.265 2.777 7.472 2.777.168 0 .336-.004.504-.016.102-.004.196-.02.293-.027l.035.035c.036.039.07.074.106.11l1.484 1.812a1.76 1.76 0 0 1-1.027.328.45.45 0 0 0 0 .898c.656 0 1.258-.234 1.726-.629.391.23.836.356 1.286.356.035 0 .074-.004.113-.008a2.686 2.686 0 0 1-2.227 1.18.45.45 0 0 0 0 .898c1.266 0 2.38-.66 3.02-1.652l.258.836.027.074c.086.164.195.3.32.422l-.18.75-.011.078c-.027.512.184 1 .566 1.305.114.093.239.16.368.21l-.305.356-.047.063c-.23.386-.266.859-.094 1.261.008.016.02.032.028.047-.782.223-1.567.375-2.133.41a1.477 1.477 0 0 0-1.317 1.043c-.132.446 0 .88.348 1.133.387.285 1.02.23 2.023.11.375-.044.762-.094.98-.075.067.004.114.024.13.051.015.027.015.094-.035.184-.067.125-.157.28-.262.457-.633 1.07-1.59 2.683-1.25 3.82.121.406.473.676.922.703a.633.633 0 0 0 .086.004c.57 0 1.117-.355 1.36-.895.468-1.046 1.812-2.636 3.233-4.316l.293-.348c.036-.039.125-.136.247-.265.101-.11.222-.238.347-.375h.004c.281 0 .563-.09.8-.258.345-.246.56-.625.599-1.04l.003-.03-.082-2.016h.09l.117-.02c.434-.12.801-.433 1.004-.855a1.63 1.63 0 0 0 .043-1.344zM21.98 6.926l.02.011c.2.141.328.372.352.63a.96.96 0 0 1-.215.718l-4.66 3.07-.086.067a.748.748 0 0 1-.2.156.73.73 0 0 1-.266.098c-.003 0-.01.004-.015.004a.746.746 0 0 1-.246-.012c-.012-.004-.02-.004-.027-.008a.69.69 0 0 1-.235-.101l-.027-.016a.835.835 0 0 1-.227-.254l-.418-1.367c.055-.024.102-.05.153-.074 2.222-1.07 3.316-3.368 3.789-4.758zM2.937 4.07L3.079 4a8.156 8.156 0 0 0 2.527.582h.032a.449.449 0 0 0 .031-.898c-.5-.036-.98-.122-1.43-.243L9.016 1.13c.648-.188 2.425-.488 3.406.2.078.054.14.124.207.19a1.3 1.3 0 0 1 .14.153c.04.055.079.113.114.176.031.05.066.105.09.164.039.078.062.168.09.258.015.05.035.097.046.152.036.152.059.308.067.484l.008.051s0 .008.004.02v.02c0 .007.003.015.003.026.008.059.016.16.024.29V3.609c-.004.051-.004.102-.008.157v.015c-.008.051-.012.106-.016.164-.004.004-.004.012-.004.02l-.023.168c0 .008-.004.015-.004.027-.012.055-.02.113-.035.168 0 .012-.004.024-.008.035-.012.055-.027.11-.043.168a2.69 2.69 0 0 1-.148.406c-.008.02-.016.036-.024.051-.023.051-.047.102-.078.153a.427.427 0 0 1-.031.058c-.027.047-.059.094-.086.14-.035.052-.07.102-.11.153-.503.637-1.316 1-2.417 1.07-2.965.204-5.953-1.597-7.242-2.492zM13.45 9.285c.235-.402.375-.867.375-1.363a.45.45 0 0 0-.898 0c0 .273-.07.531-.18.766l-1.062-1.301c.796-.297 1.386-.813 1.765-1.54 0 0 0-.003.004-.007.043-.063.082-.13.121-.195a4.789 4.789 0 0 0 .129-.246c.008-.016.016-.028.02-.044.035-.07.062-.136.09-.203.003-.015.011-.03.015-.043.027-.07.05-.136.07-.203a.14.14 0 0 1 .016-.043c.02-.07.04-.136.055-.203l.011-.039a3.76 3.76 0 0 0 .043-.203c.004-.008.004-.02.008-.031.012-.067.024-.133.031-.2.004-.011.004-.019.004-.027a1.77 1.77 0 0 0 .024-.195c.004-.008.004-.016.004-.024.004-.062.011-.125.011-.187.004-.004.004-.012.004-.016 0-.062.004-.12.004-.175v-.016V3.375c0-.05 0-.102-.004-.148v-.008c-.007-.192-.027-.328-.035-.387 0-.012-.004-.02-.004-.031a4.016 4.016 0 0 0-.097-.649 4.028 4.028 0 0 0-.078-.257c-.004-.016-.008-.032-.016-.047-.031-.09-.07-.18-.11-.266-.003-.004-.003-.012-.007-.016l4.687.739a.94.94 0 0 1 .613.48c.157.285.18.625.063.93l-.02.074c-.003.016-.109.543-.382 1.273-.016.04-.032.079-.047.122-.012.039-.028.074-.043.113-.031.078-.063.156-.098.234-.004.012-.012.02-.015.032-.47 1.078-1.29 2.44-2.618 3.257-.004.004-.011.004-.015.008-.09.055-.184.102-.274.152 0-.054.008-.109.008-.16a.45.45 0 0 0-.898 0c0 .18-.02.36-.055.532a1.67 1.67 0 0 1-.188.05 1.59 1.59 0 0 1-1.03-.117zm6.223 8.574l-.293.348c-1.469 1.73-2.852 3.367-3.371 4.531-.11.242-.371.383-.57.364-.098-.008-.11-.043-.118-.067-.226-.758.676-2.285 1.164-3.105.11-.188.207-.352.278-.485.195-.351.207-.734.035-1.047-.168-.3-.477-.488-.856-.515-.05-.004-.101-.004-.156-.004-.281 0-.629.043-.996.086-.422.05-1.21.144-1.387.055-.011-.008-.05-.036-.015-.153a.592.592 0 0 1 .508-.402c.777-.043 1.875-.277 2.894-.613.016.003.027.007.043.011l3.086.73c-.121.13-.215.227-.246.266zm1.781-1.414a.54.54 0 0 1-.223.367.465.465 0 0 1-.359.083l-.012-.004-3.816-.903c-.016-.004-.027-.011-.066-.027l-.051-.024a.384.384 0 0 1-.153-.175.5.5 0 0 1 .024-.422l.723-.836 3.855-.04zm1.223-3.254a.697.697 0 0 1-.39.364l-.157.004-2.945.027-1.965.02-.114.003-.015.016a.56.56 0 0 1-.5-.102.645.645 0 0 1-.23-.52l.105-.46c.027.008.05.008.074.012.02.004.035.011.055.015.023.004.047.004.074.004h.012c.047.004.093.012.136.012.02 0 .036-.004.051-.004.074-.004.149-.012.223-.023.047-.008.094-.02.144-.036.043-.011.086-.023.13-.039.046-.02.097-.035.144-.058a1.23 1.23 0 0 0 .277-.164c.078-.055.156-.117.227-.184l3.316-2.183 1.379 2.703a.735.735 0 0 1-.031.593zm0 0"/>
</svg>
